packages/foundations/assets/icons/functional/images/devices/telephone_32.svg

<svg width="32" height="32" viewBox="0 0 32 32" fill="none" xmlns="http://www.w3.org/2000/svg">
<g clip-path="url(#clip0_185_746)">
<path fill-rule="evenodd" clip-rule="evenodd" d="M7.8688 2.5C8.8364 2.5 9.8353 2.87417 10.5844 3.6224L13.737 6.67787C14.4861 7.42611 14.8594 8.41496 14.8594 9.38265C14.8594 10.3815 14.4844 11.3803 13.7344 12.0983L12.2344 13.5653C13.4844 15.1884 16.9531 18.6844 18.4844 19.7768L20.1406 18.1225C20.7656 17.4983 21.6719 17.2174 22.5781 17.2174C23.6094 17.2174 24.6306 17.5589 25.3798 18.3071L28.4075 21.3938C29.1566 22.142 29.5 23.0773 29.5 24.0751C29.5 24.9792 29.1879 25.9457 28.5012 26.694C26.6908 28.8141 25.2549 29.5 23.1948 29.5C19.6052 29.5 14.9543 26.9746 9.9531 22.0242C4.9971 17.0289 2.5 12.3834 2.5 8.82909C2.5 6.58428 3.3116 5.1813 5.4341 3.37299C6.152 2.78058 6.9948 2.5 7.8688 2.5ZM7.9 4.46423C7.4006 4.46423 6.9012 4.65131 6.5578 4.96305C4.8723 6.45962 4.404 7.30135 4.404 8.82909C4.404 11.791 6.7139 16 11.3281 20.6821C15.9532 25.291 20.1983 27.5669 23.1948 27.5669C24.6618 27.5669 25.5671 27.1305 27.0653 25.4157C27.4087 24.9792 27.5647 24.5116 27.5647 24.0751C27.5647 23.5762 27.3775 23.1086 27.0341 22.7344L24.0156 19.6832C23.6719 19.3087 23.1719 19.1214 22.7031 19.1214C22.2344 19.1214 21.7969 19.2774 21.4531 19.5897L19.2656 21.7434C19.0781 21.9306 18.8281 22.0242 18.5781 22.0242C18.3906 22.0242 18.2031 21.9619 18.0469 21.8682C16.4844 20.8069 15.0781 19.6208 13.7344 18.3098C12.4219 16.9988 11.2031 15.5317 10.1719 14.0023C10.0781 13.8463 10.0156 13.6589 10.0156 13.4405C10.0156 13.1907 10.1094 12.941 10.2969 12.7538L12.3594 10.7561C12.7656 10.3815 12.9531 9.88207 12.9531 9.38265C12.9531 8.91439 12.7656 8.41496 12.3594 8.0404L9.2734 5.02538C8.8988 4.65131 8.3994 4.46423 7.9 4.46423Z" fill="#1A1C1F"/>
</g>
<defs>
<clipPath id="clip0_185_746">
<rect width="32" height="32" fill="white"/>
</clipPath>
</defs>
</svg>

<svg xmlns="http://www.w3.org/2000/svg" width="32" height="32" fill="none"><g clip-path="url(#a)"><path fill="#1A1C1F" fill-rule="evenodd" d="M7.869 2.5c.967 0 1.966.374 2.715 1.122l3.153 3.056a3.83 3.83 0 0 1 1.122 2.705c0 .999-.375 1.997-1.125 2.715l-1.5 1.467c1.25 1.623 4.72 5.12 6.25 6.212l1.657-1.655c.625-.624 1.53-.905 2.437-.905 1.031 0 2.053.342 2.802 1.09l3.028 3.087c.749.748 1.092 1.683 1.092 2.681 0 .904-.312 1.87-.999 2.619-1.81 2.12-3.246 2.806-5.306 2.806-3.59 0-8.24-2.525-13.242-7.476C4.997 17.03 2.5 12.384 2.5 8.83c0-2.245.812-3.648 2.934-5.456A3.77 3.77 0 0 1 7.87 2.5M7.9 4.464c-.5 0-.999.187-1.342.499C4.872 6.46 4.404 7.301 4.404 8.83c0 2.962 2.31 7.171 6.924 11.853 4.625 4.609 8.87 6.885 11.867 6.885 1.467 0 2.372-.436 3.87-2.151.344-.437.5-.904.5-1.34 0-.5-.187-.967-.53-1.342l-3.02-3.05a1.8 1.8 0 0 0-1.312-.563 1.83 1.83 0 0 0-1.25.469l-2.187 2.153a.97.97 0 0 1-.688.281c-.187 0-.375-.062-.531-.156-1.563-1.061-2.969-2.247-4.313-3.558a29.3 29.3 0 0 1-3.562-4.308 1.1 1.1 0 0 1-.156-.562c0-.25.093-.499.28-.686l2.063-1.998c.407-.374.594-.874.594-1.373 0-.469-.187-.968-.594-1.343L9.273 5.025a1.94 1.94 0 0 0-1.373-.56" clip-rule="evenodd"/></g><defs><clipPath id="a"><path fill="#fff" d="M0 0h32v32H0z"/></clipPath></defs></svg>
